icons/op-chart3-24.svg

<svg xmlns="http://www.w3.org/2000/svg" width="24" height="24" viewBox="0 0 24 24"><path d="M20 19H4v-1h16v1ZM8 17H4V8h4v9Zm6 0h-4v-5h4v5Zm6 0h-4V5h4v12Z"/></svg>

<svg width="24" height="24" viewBox="0 0 24 24" fill="none" xmlns="http://www.w3.org/2000/svg">
<path d="M20 19H4V18H20V19ZM8 17H4V8H8V17ZM14 17H10V12H14V17ZM20 17H16V5H20V17Z" fill="black"/>
</svg>
